dist/assets/img/social/instagram.svg

<svg width="29" height="29" viewBox="0 0 29 29" fill="none" xmlns="http://www.w3.org/2000/svg">
<path fill-rule="evenodd" clip-rule="evenodd" d="M14.526 0.942383C10.8173 0.942383 10.3519 0.958599 8.8953 1.02489C7.44153 1.09146 6.44921 1.32161 5.58094 1.65931C4.68279 2.0081 3.92091 2.47467 3.16188 3.23398C2.40228 3.99302 1.93571 4.75489 1.58578 5.65276C1.24723 6.52132 1.01679 7.51392 0.95136 8.96712C0.88621 10.4237 0.869141 10.8894 0.869141 14.5981C0.869141 18.3068 0.885641 18.7708 0.951644 20.2274C1.0185 21.6812 1.24866 22.6735 1.58607 23.5418C1.93514 24.4399 2.40171 25.2018 3.16103 25.9608C3.91977 26.7204 4.68165 27.1881 5.57923 27.5369C6.44808 27.8746 7.44068 28.1048 8.89416 28.1713C10.3508 28.2376 10.8159 28.2538 14.5243 28.2538C18.2333 28.2538 18.6973 28.2376 20.1539 28.1713C21.6076 28.1048 22.6011 27.8746 23.4699 27.5369C24.3678 27.1881 25.1285 26.7204 25.8873 25.9608C26.6469 25.2018 27.1135 24.4399 27.4634 23.542C27.7991 22.6735 28.0295 21.6809 28.0978 20.2277C28.1632 18.7711 28.1803 18.3068 28.1803 14.5981C28.1803 10.8894 28.1632 10.424 28.0978 8.9674C28.0295 7.51363 27.7991 6.52132 27.4634 5.65304C27.1135 4.75489 26.6469 3.99302 25.8873 3.23398C25.1277 2.47439 24.3681 2.00781 23.4691 1.65931C22.5985 1.32161 21.6057 1.09146 20.1519 1.02489C18.6953 0.958599 18.2316 0.942383 14.5217 0.942383H14.526ZM13.2997 3.40767C13.6633 3.4071 14.069 3.40767 14.5247 3.40767C18.1708 3.40767 18.603 3.42076 20.0428 3.48619C21.3742 3.54707 22.0968 3.76955 22.5782 3.95646C23.2155 4.20397 23.6698 4.49984 24.1475 4.97779C24.6254 5.45574 24.9213 5.91093 25.1694 6.5482C25.3563 7.029 25.579 7.75161 25.6396 9.08304C25.7051 10.5226 25.7193 10.955 25.7193 14.5994C25.7193 18.2438 25.7051 18.6762 25.6396 20.1157C25.5788 21.4472 25.3563 22.1698 25.1694 22.6506C24.9219 23.2878 24.6254 23.7416 24.1475 24.2193C23.6695 24.6972 23.2158 24.9931 22.5782 25.2406C22.0974 25.4284 21.3742 25.6503 20.0428 25.7112C18.6032 25.7766 18.1708 25.7908 14.5247 25.7908C10.8784 25.7908 10.4462 25.7766 9.00669 25.7112C7.67525 25.6497 6.95264 25.4272 6.47099 25.2403C5.83372 24.9928 5.37853 24.6969 4.90058 24.219C4.42263 23.741 4.12676 23.287 3.87868 22.6494C3.69176 22.1686 3.469 21.446 3.40841 20.1146C3.34297 18.6751 3.32989 18.2426 3.32989 14.596C3.32989 10.9493 3.34297 10.5192 3.40841 9.07963C3.46929 7.7482 3.69176 7.02558 3.87868 6.54422C4.12619 5.90695 4.42263 5.45176 4.90058 4.97381C5.37853 4.49586 5.83372 4.19998 6.47099 3.95191C6.95235 3.76414 7.67525 3.54223 9.00669 3.48107C10.2664 3.42417 10.7546 3.4071 13.2997 3.40425V3.40767ZM21.8135 5.68217C20.9088 5.68217 20.1748 6.41531 20.1748 7.32029C20.1748 8.22498 20.9088 8.95897 21.8135 8.95897C22.7182 8.95897 23.4522 8.22498 23.4522 7.32029C23.4522 6.41559 22.7182 5.6816 21.8135 5.6816V5.68217ZM14.5249 7.58201C10.6521 7.58201 7.51214 10.722 7.51214 14.5948C7.51214 18.4676 10.6521 21.6062 14.5249 21.6062C18.3977 21.6062 21.5366 18.4676 21.5366 14.5948C21.5366 10.722 18.3975 7.58201 14.5246 7.58201H14.5249ZM14.5226 10.0551C17.0365 10.0551 19.0746 12.093 19.0746 14.607C19.0746 17.1208 17.0365 19.159 14.5226 19.159C12.0085 19.159 9.97064 17.1208 9.97064 14.607C9.97064 12.093 12.0085 10.0551 14.5226 10.0551Z" fill="#656565"/>
</svg>

<svg width="29" height="29" viewBox="0 0 29 29" fill="none" xmlns="http://www.w3.org/2000/svg"><path fill-rule="evenodd" clip-rule="evenodd" d="M14.526.942c-3.709 0-4.174.017-5.63.083-1.454.066-2.447.297-3.315.634a6.687 6.687 0 00-2.42 1.575 6.704 6.704 0 00-1.575 2.419c-.339.868-.57 1.86-.635 3.314C.886 10.424.87 10.89.87 14.598c0 3.709.017 4.173.083 5.63.067 1.453.297 2.445.634 3.314.35.898.816 1.66 1.575 2.419a6.687 6.687 0 002.418 1.576c.87.338 1.862.568 3.315.634 1.457.067 1.922.083 5.63.083 3.71 0 4.173-.016 5.63-.083 1.454-.066 2.447-.296 3.316-.634a6.682 6.682 0 002.417-1.576 6.703 6.703 0 001.576-2.419c.336-.869.566-1.861.635-3.314.065-1.457.082-1.921.082-5.63 0-3.709-.017-4.174-.082-5.63-.069-1.454-.299-2.447-.635-3.315a6.702 6.702 0 00-1.576-2.419 6.674 6.674 0 00-2.418-1.575c-.87-.337-1.863-.568-3.317-.634-1.457-.066-1.92-.083-5.63-.083h.004zM13.3 3.408h1.225c3.646 0 4.078.013 5.518.078 1.331.061 2.054.284 2.535.47a4.223 4.223 0 011.57 1.022c.477.478.773.933 1.021 1.57.187.481.41 1.204.47 2.535.066 1.44.08 1.872.08 5.516 0 3.645-.014 4.077-.08 5.517-.06 1.331-.283 2.054-.47 2.535a4.224 4.224 0 01-1.021 1.568 4.224 4.224 0 01-1.57 1.022c-.48.187-1.204.41-2.535.47-1.44.066-1.872.08-5.518.08-3.647 0-4.079-.014-5.518-.08-1.332-.061-2.054-.284-2.536-.47a4.23 4.23 0 01-1.57-1.022 4.233 4.233 0 01-1.022-1.57c-.187-.48-.41-1.203-.47-2.534-.066-1.44-.08-1.872-.08-5.519 0-3.647.014-4.077.08-5.516.06-1.332.283-2.054.47-2.536A4.231 4.231 0 014.9 4.974a4.238 4.238 0 011.57-1.022c.481-.188 1.204-.41 2.536-.47 1.26-.058 1.748-.075 4.293-.078v.004zm8.514 2.274a1.638 1.638 0 10-.001 3.278 1.638 1.638 0 000-3.278zm-7.29 1.9a7.013 7.013 0 10.002 14.026 7.013 7.013 0 00-.001-14.026zm-.001 2.473a4.552 4.552 0 110 9.104 4.552 4.552 0 010-9.104z" fill="#656565"/></svg>
